X: 1
T:WHA SAW THE 42nd  "10"
M:C|
L:1/8
Q:80
C:Traditional
S:March
K:HP
e|:
{g}A2{GdGe}A3/2B/2|
{gcd}c{e}B{gcd}ce|
{g}A2{GdGe}A3/2f/2|  !
{gef}ec{gBd}B2|
{g}A2{GdGe}A3/2B/2|
{gcd}c{e}B{gcd}ce|  !
{g}fa{ef}ea|
{gcd}c{e}A{gBd}B2:| |:
{gcd}ce{A}e{g}f/2g/2|  !
{ag}ae{gfg}fe|
{gcd}ce{A}e{g}f/2g/2|
{ag}ac{gBd}B2|  !
{gcd}ce{A}e{g}f/2g/2|
{ag}ae{gfg}fe|
{g}fa{ef}ea|  !
{gcd}c{e}A{gBd}B2:|
